X:089
T:Frogmore Farm TS.089
M:6/8
L:1/8
Q:3/8=115
S:Thomas Sands’ MS,1810,Lincolnshire
R:jig
O:England;Lincolnshire
Z:vmp.Ruairidh Greig, 2011
K:F
f|fed cAF|dfd cAF|cAc cBA|BGGG2f|
faf gec|dfd cAc|AFA BAG|FFFF2:|
|:A|cAc fcA|dBd gdB|cAc fcA|BGGG2A|
cAc fcA|dBd gdB|cba gfe|ffff2:|]

